!! 00000] TT[WS
!!!OTL: Xiaogufu shangfeng
!!!ARE: Asia, China, Shanxi Ningwu
!! Ethnic Group: Han
!! WII, 153 (2)
!!!SCT: J0634
!!!YEM: Copyright 1995, estate of Helmut Schaffrath.
**kern
*ICvox
*Ivox
*M2/4
*k[b-e-a-]
*E-:
{8.ee-
16g
4b-
=1
8.ee-
16g
4b-
=2
8ff
16ff
16gg
16ff
16ee-
8cc
=3
8.b-
16f
4b-}
=4
{16ff
16gg
16ff
16ee-
16ff
16gg
16ff
16ee-
=5
8b-
16cc
16b-
8a-
8f
=6
16ee-
8ee-
16b-
16ee-
8g
16f
=7
2e-}
==
!!!AGN: Xiaodiao. Qingge, Aisu
!!!ONB: ESAC (Essen Associative Code) Database: CHINA
!!!AMT: simple duple
!!!AIN: vox
!!!EED: Helmut Schaffrath
!!!EEV: 1.0
*-
